X:1008
T:Swipesy
C:Scott Joplin and Arthur Marshall, 1900
L:1/16
M:2/4
R:Rag
%%MIDI gchord fzczfzcz
N:For the dance "The Devilish Delight of Doctor Dennard" by Fried de Metz Herman.
S:Colin Hume's website,  colinhume.com  - chords can also be printed below the stave.
Q:1/4=60
K:Bb
P:A
f2 g2a2 |: "Bb"bb2f agfd | "/"fg2f d2B2 | "Gm"Bd2B "D"A2dG- | "Gm"G4 zB2G | "Eb"BcBG BcBG |
"Bb"Bd2B "G7"d4 |[1 "C7"cb2a- a=eg2 | "F7"c'faf ga2f :| [2"C7"Gd3 "F7"Ac2B- | "Bb"BF"F7"GA "Bb"B2z2 ||
P:B
|: "F7"Ae2c dcAF | "/"Ae2c dcAF | "Bb"Bd2B G4 | "Gm"zd2c dcBG |
[1"D7"Ae2c A4 | "/"Ae2c A4 | "Gm"Bd2B G4 | "Eb"dd2c dcBG :|
[2 "Eb"BcBG BcBG | "Bb"Bd2B "G7"d4 | "C7"Gd3 "F7"Ac2B- | "Bb"BF"F7"GA "Bb"B2z2 |]

